X:1
L:1/8
Q:1/8=232
M:4/4
K:D
|: de | f2 fd f2 fd | f2 fd cd eg | f2 fd gf ed | cA Bc de fg | f2 fd f2 fd | f2 fd cd eg | 
 f2 fd gf ed | cA Bc de fg | a2 af b2 ba | g2 ge a2 ag | f2 fd gf ed | cA Bc de fg | a2 af b2 ba | 
 g2 ge a2 ag | f2 fd gf ed | cA Bc d2 :|
